T: Hawthorn Hedge, The
M: 6/8
L: 1/8
K: Dmaj
|: e | ~f3 faf | edB BdB | ~ A,DD D2 :||: B, | A,DD FAA | d/e/fd edB | ~ fdc d2 :|
